X:1
T:Title
%%score { ( 1 3 5 ) | ( 2 4 ) }
L:1/8
M:6/8
K:E
V:1 treble nm="Grand Piano"
V:3 treble 
V:5 treble 
V:2 bass 
V:4 bass 
V:1
 z3 z2[Q:1/4=84] [Ec] | [Ec][=DB][CA] [CE][A,C][CA] | GEB [A,CA]2 [C=GA] | %3
 [FA][^EG][F=d] [Fd][FA][EB] | [Ec]3- [Ec]2 [Ec] | [Dc][DB][DB] FGA | GG[B,FA] [EGB]2 [CFA] | %7
 [EG][GB][FA] [EG][EG][DF] | E6 |[M:1/8] E |[M:3/4] =d4 z2 | A4 z2 | [CE]F A[CE] [CF][CA] | %13
 [=DG]6[K:bass][K:treble] | =d4 z2 | c6 | [Dc]B A[Dc] [DB][DA] | B6 | [Ece]4[K:bass][K:treble] z2 | %19
 [CAc]6[K:bass][K:treble] | [Ec]2[K:bass][K:treble] z2 z2 | [F=d]6 | A6 | e-[Ae-] [Ae-] [Ae]2 c | %24
[M:27/32] [Ge]/4-[Ge]/4-[Ge]/-<[Ge]/[G=d]/[Fc]/-<[Fc]/[DB]/B,/4-B,/4-B,/4-B,/4-B,/-<B,/[B,=DG]/4-[B,DG]/-<[B,DG]/ | %25
[M:3/4] A6[Q:1/4=83][Q:1/4=81][Q:1/4=80][Q:1/4=79][Q:1/4=77][Q:1/4=76][Q:1/4=75][Q:1/4=74][Q:1/4=72][Q:1/4=71][Q:1/4=70][Q:1/4=68][Q:1/4=67][Q:1/4=66][Q:1/4=64] |] %26
V:2
 z3 z2 [A,,A,] | [A,,A,][A,,E,][A,,E,] [A,,E,][A,,E,][A,,E,] | [E,=D][E,G,D][E,G,D] A,,2 A,, | %3
 [=D,=D][D,D][D,D] [D,A,][D,A,][D,A,] | [A,,A,]3- [A,,A,]2 [A,,A,] | %5
 [B,,F,][B,,F,][B,,F,] [A,B,D][G,B,D][F,B,D] | [E,B,E][E,B,E]E, E,2 A,, | %7
 [B,,B,][B,,B,][B,,B,] [B,,B,][B,,B,][B,,A,] | .[G,B,]3 z3 |[M:1/8] [E,G,] |[M:3/4] .E2 z2 z2 | %11
 [A,,E,]3 [A,,A,]2 [A,,A,] | z C C [A,,A,]2 [A,,E,] | [B,,E,]B,, B,, E,2 [E,G,] | %14
 .E2 z2 [E,G,E][E,G,E] | [A,,A,]3 [A,,A,]2 [A,,A,] | z D D [B,,F,]2 [B,,F,] | %17
 [E,G,E][G,B,] [F,A,] .[E,G,]3 | .A,,2 z2[K:treble] [D^B][Ec] | A,3 A,,2 E | %20
 A,->[A,-E] [E,A,E] [A,,A,]2 [A,,A,] | [=D,A,]6 | [D,^B,][D,B,] [D,B,] .[D,B,]3 | %23
 [E,C][E,C] [E,C] [E,C]2 [A,A] | %24
[M:27/32] [E,B,]/4-[E,B,]/4-[E,B,]/-<[E,B,]/[E,B,]/[F,A,]/-<[F,A,]/[B,,F,]/ z/4 z/4 z/4 z/4 z/4 z/4 z/ E,/4-E,/-<E,/ | %25
[M:3/4] (7:8:7z3/4 G,-G,/8F,3/4E,3/8- E,2- E,/4 |] %26
V:3
 x6 | x6 | x6 | x6 | x6 | x6 | x6 | x6 | z2 C =D3 |[M:1/8] x |[M:3/4] z G FE FG | CF E [CE]2 [CE] | %12
 x6 | z[K:bass] E, E, B,2[K:treble] E | z G FE B^B | EA F E2 [Ec] | x6 | z E D =D2 E | %18
 z[K:bass] C, .E,2[K:treble] de | z[K:bass] C, E, A,2[K:treble] c | %20
 z[K:bass] z/[K:treble] c/ c[CA] [=DB][Ec] | x6 | FF F .F3 | .A2 z2 z2 | %24
[M:27/32] z/4 z/4 z/4 z/4 z/4 z/4 z/4 z/4 z/4 z/4 z/4 z/4 z/ [DF]/4-[DF]/4-[DF]/4-[DF]/4-[DF]/4-[DF]/4-[DF]/-<[DF]/ z/4 z/ | %25
[M:3/4] (7:8:7[A,C]3/4E-E/8=D3/4C3/8- C2- C/4 |] %26
V:4
 x6 | x6 | x6 | x6 | x6 | x6 | x6 | x6 | E,2- [E,-A,] [E,B,]3 |[M:1/8] x | %10
[M:3/4] [E,G,]4 [E,G,=D][E,D] | x6 | [A,,A,]4 z2 | x6 | [E,G,]4 z2 | x6 | [B,,F,]4 z2 | x6 | %18
 A,3 A,,3[K:treble] | .A,,2 z2 z2 | .A,,2 z2 z2 | x6 | x6 | x6 | %24
[M:27/32] z/4 z/4 z/4 z/4 z/4 z/4 z/4 z/4 z/4 z/4 z/4 z/4 z/ B,,/4-B,,/4-B,,/4-B,,/4-B,,/4-B,,/4-B,,/-<B,,/ z/4 z/ | %25
[M:3/4] A,,6 |] %26
V:5
 x6 | x6 | x6 | x6 | x6 | x6 | x6 | x6 | x6 |[M:1/8] x |[M:3/4] x6 | x6 | x6 | %13
 x[K:bass] x4[K:treble] x | x6 | x6 | x6 | x6 | z2[K:bass] z A,3[K:treble] | %19
 x[K:bass] x4[K:treble] x | z[K:bass] C,[K:treble] z2 z2 | x6 | x6 | x6 |[M:27/32] x27/4 | %25
[M:3/4] x6 |] %26

